src/assets/Vector (43).svg

<svg width="79" height="78" viewBox="0 0 79 78" fill="none" xmlns="http://www.w3.org/2000/svg">
<path fill-rule="evenodd" clip-rule="evenodd" d="M20.9596 0.982673C20.7088 1.03617 18.2123 2.59078 15.4117 4.43751C12.6111 6.28423 10.2298 7.85046 10.1197 7.91772C9.98431 8.00072 9.5847 7.71518 8.88369 7.03448C8.31385 6.48127 7.6522 5.9539 7.41341 5.86264C6.3245 5.44624 5.22783 6.26207 5.22783 7.48818C5.22783 8.12225 5.30034 8.24224 6.35368 9.3511L7.47968 10.5362L4.21978 15.5021C2.42681 18.2333 0.82582 20.7233 0.661814 21.0351C-0.00576109 22.3059 -0.244246 21.9858 6.25382 28.5371C9.49335 31.8032 12.2717 34.5464 12.4281 34.6333C12.5845 34.7201 12.9265 34.7895 13.1881 34.7875C13.4497 34.7855 16.0972 34.1251 19.0715 33.32C22.0457 32.5149 24.5773 31.8562 24.6974 31.8562C24.8175 31.8562 25.8382 32.8021 26.9658 33.9581C28.0933 35.1142 29.855 36.9221 30.8807 37.9759L32.7452 39.8917L28.5531 43.9375C24.9424 47.422 24.2832 47.9949 23.8003 48.068C23.4919 48.1146 23.1028 48.23 22.9356 48.3247C22.7684 48.4191 19.854 51.3045 16.4591 54.7365C9.45596 61.816 9.4777 61.7877 9.36355 64.0172C9.31339 64.9987 9.3672 65.4557 9.6221 66.2136L9.94418 67.1709L6.87686 71.1817C5.18999 73.3878 3.47317 75.6226 3.06171 76.148C2.65025 76.6734 2.34033 77.1034 2.37301 77.1034C2.40554 77.1034 4.64234 75.3933 7.34349 73.3032L12.2545 69.5029L12.9594 69.7723C14.023 70.1787 14.9394 70.2688 16.0162 70.0723C17.8818 69.7321 18.0777 69.5717 24.581 63.0616C27.9103 59.7289 30.7697 56.814 30.9354 56.5843C31.1009 56.3547 31.2517 55.9265 31.2704 55.633C31.3005 55.1602 31.7533 54.6284 35.2436 50.9679C37.4102 48.6958 39.2245 46.8367 39.2754 46.8367C39.5155 46.8367 47.2519 55.1454 47.2231 55.3724C47.1285 56.1195 47.6731 56.7422 53.7541 62.8377C60.4901 69.5896 60.6614 69.7307 62.5346 70.0723C63.6081 70.2682 64.5276 70.1787 65.5808 69.7764L66.2748 69.5112L71.1015 73.2456C73.7561 75.2996 75.9481 76.9563 75.9726 76.9271C75.9972 76.8979 74.8277 75.3264 73.3739 73.4347C71.9201 71.543 70.2505 69.3667 69.6634 68.5983L68.5964 67.2014L68.9077 66.272C69.4429 64.6742 69.2591 62.7646 68.437 61.3806C68.0855 60.789 56.1312 48.6163 55.6152 48.3247C55.448 48.23 55.0579 48.1146 54.7483 48.068C54.2625 47.9948 53.6114 47.4296 49.995 43.9432L45.8046 39.9032L47.5948 38.058C48.5795 37.0431 50.3539 35.2073 51.5381 33.9784L53.6912 31.7439L59.2131 33.2366C62.2502 34.0576 64.8718 34.7442 65.039 34.7626C65.9836 34.8659 66.0211 34.834 72.0645 28.7634C75.3482 25.4649 78.0349 22.679 78.0349 22.5724C78.0349 22.4659 78.1033 22.3788 78.1869 22.3788C78.2705 22.3788 78.3389 22.1339 78.3389 21.8347C78.3389 21.5356 78.2753 21.3301 78.1978 21.3784C78.1203 21.4266 78.0165 21.3447 77.9674 21.1964C77.9181 21.048 76.3462 18.5878 74.4739 15.7293L71.0699 10.532L71.9466 9.61479C73.1073 8.40046 73.3229 8.04964 73.3229 7.37597C73.3229 6.32214 72.1852 5.47712 71.1927 5.79401C71.0097 5.8524 70.3544 6.38314 69.7367 6.97334C68.6634 7.99858 68.5979 8.03634 68.2702 7.82004C59.9324 2.32052 58.0003 1.07424 57.6623 0.976712C56.7164 0.703853 56.5805 0.81483 50.8473 6.54028C47.8069 9.57642 45.1223 12.3289 44.8814 12.6567C44.6405 12.9846 44.4433 13.4278 44.4433 13.6415C44.4433 13.8552 45.1273 16.5934 45.9633 19.7263C46.7993 22.8592 47.4833 25.4516 47.4833 25.4874C47.4833 25.5231 45.6336 27.3599 43.3731 29.5694L39.2628 33.5866L37.2552 31.6167C36.1509 30.5332 34.3026 28.7178 33.1479 27.5825L31.0482 25.5182L32.5779 19.7716C33.4192 16.6108 34.1075 13.8255 34.1075 13.5822C34.1075 13.2034 33.2383 12.2643 28.0816 7.07239C24.7673 3.73557 21.9117 0.978393 21.7357 0.945528C21.5597 0.91251 21.2104 0.929324 20.9596 0.982673ZM16.6549 7.6606L12.35 10.5098L19.8786 18.0811C24.0192 22.2453 27.4414 25.6178 27.4834 25.5756C27.5852 25.4732 30.4595 14.6967 30.4595 14.4171C30.4595 14.2204 21.2139 4.79154 21.0347 4.80545C20.9934 4.80866 19.0224 6.09346 16.6549 7.6606ZM52.7643 9.50106C50.1942 12.0869 48.0913 14.2999 48.0913 14.4189C48.0913 14.6973 50.9659 25.4736 51.0674 25.5756C51.1093 25.6178 54.532 22.2447 58.6734 18.08L66.2029 10.5075L61.8843 7.65357C59.5092 6.08383 57.5369 4.79964 57.5016 4.79964C57.4662 4.79964 55.3344 6.91525 52.7643 9.50106ZM7.02445 17.3725L4.1982 21.6909L8.93932 26.4759L13.6803 31.261L19.144 29.7944C22.149 28.9879 24.7068 28.2933 24.8281 28.2508C24.9731 28.2001 22.4795 25.5895 17.5327 20.6138C13.3991 16.456 9.9796 13.0542 9.93384 13.0542C9.88824 13.0542 8.57893 14.9975 7.02445 17.3725ZM61.023 20.6089L53.5118 28.164L54.3355 28.4008C54.7885 28.531 57.3454 29.2267 60.0173 29.9467L64.8755 31.2558L69.6151 26.4733L74.3549 21.6909L71.5557 17.4108C70.0161 15.0567 68.7063 13.1133 68.6452 13.0923C68.5841 13.0712 65.1541 16.4537 61.023 20.6089ZM0.402202 21.9966C0.403874 22.3329 0.435033 22.4525 0.471361 22.2623C0.507688 22.0721 0.50632 21.797 0.468321 21.6508C0.430321 21.5047 0.40053 21.6603 0.402202 21.9966ZM28.5074 29.3095L27.8567 29.9763L38.6049 41.1962C44.5164 47.3671 49.3953 52.4337 49.4469 52.4553C49.4986 52.4768 50.0283 51.9953 50.6242 51.3853L51.7073 50.2761L40.5894 39.5106C34.4745 33.5897 29.401 28.7221 29.3148 28.694C29.2285 28.6658 28.8652 28.943 28.5074 29.3095ZM45.4304 32.2656L41.6952 35.885L42.4941 36.6986C42.9335 37.146 43.336 37.5121 43.3888 37.5121C43.4415 37.5121 45.1047 35.8144 47.0849 33.7396L50.6851 29.9671L50.0405 29.3066C49.686 28.9433 49.344 28.6461 49.2807 28.6461C49.2173 28.6461 47.4846 30.2749 45.4304 32.2656ZM30.8919 46.3463L26.8403 50.2761L27.9251 51.3853C28.5217 51.9953 29.0479 52.4768 29.0943 52.4553C29.2564 52.3801 36.7679 44.5133 36.8232 44.3608C36.8758 44.2159 35.1977 42.3964 35.0242 42.4101C34.9798 42.4136 33.1202 44.1848 30.8919 46.3463ZM23.0432 52.8423C22.6915 53.2028 22.4036 53.5651 22.4036 53.6475C22.4036 53.7297 23.1552 54.5507 24.0741 55.4719L25.7444 57.1465L26.5077 56.3904L27.2709 55.6344L25.5617 53.9107C24.6217 52.9626 23.8143 52.1869 23.7678 52.1869C23.7211 52.1869 23.3951 52.4819 23.0432 52.8423ZM52.9891 53.9107L51.2799 55.6344L52.0431 56.3904L52.8064 57.1465L54.4767 55.4719C55.3955 54.5507 56.1472 53.7297 56.1472 53.6475C56.1472 53.4903 54.9298 52.1869 54.783 52.1869C54.7365 52.1869 53.9291 52.9626 52.9891 53.9107ZM19.3646 56.5425L18.8424 57.0841L20.5065 58.7628C21.4217 59.686 22.2443 60.4414 22.3346 60.4414C22.4249 60.4414 22.6973 60.2331 22.9399 59.9784L23.3811 59.5152L21.6337 57.7581L19.8865 56.0009L19.3646 56.5425ZM56.9108 57.7627L55.1713 59.5169L55.6117 59.9792C55.854 60.2334 56.1259 60.4414 56.2162 60.4414C56.3065 60.4414 57.1304 59.6847 58.0471 58.7599L59.7139 57.0785L59.1821 56.5434L58.6501 56.0084L56.9108 57.7627ZM15.865 60.0622L15.3465 60.6001L17.0843 62.3528L18.8221 64.1054L19.3208 63.6191C19.5951 63.3518 19.8196 63.0593 19.8196 62.9693C19.8196 62.8074 16.6227 59.5242 16.465 59.5242C16.4201 59.5242 16.15 59.7664 15.865 60.0622ZM60.2842 61.2488L58.5743 62.9733L59.1511 63.5398L59.7279 64.1061L61.4662 62.3531L63.2043 60.6001L62.6858 60.0622C62.4008 59.7664 62.1284 59.5242 62.0809 59.5242C62.0331 59.5242 61.2247 60.3003 60.2842 61.2488ZM12.8555 63.4218C12.2754 64.7024 13.0609 66.3109 14.4558 66.6982C15.0007 66.8494 16.3237 66.6528 16.3237 66.4205C16.3237 66.366 15.5839 65.5796 14.6795 64.6731L13.0355 63.0248L12.8555 63.4218ZM63.8567 64.6876C62.9605 65.5918 62.2271 66.3738 62.2271 66.4257C62.2271 66.4773 62.5226 66.5944 62.8837 66.6858C64.0299 66.9761 65.1369 66.4691 65.6277 65.4287C65.9193 64.811 65.9412 63.8672 65.6753 63.3858C65.4923 63.0546 65.4341 63.0963 63.8567 64.6876Z" fill="white"/>
</svg>

<svg xmlns="http://www.w3.org/2000/svg" width="79" height="78" fill="none" viewBox="0 0 79 78"><path fill="#fff" fill-rule="evenodd" d="M20.96.983c-.251.053-2.748 1.608-5.548 3.455a1355 1355 0 0 1-5.292 3.48c-.136.083-.535-.203-1.236-.884-.57-.553-1.232-1.08-1.47-1.171-1.09-.417-2.186.4-2.186 1.625 0 .634.072.754 1.126 1.863l1.126 1.185-3.26 4.966C2.427 18.233.826 20.723.662 21.035c-.668 1.27-.906.95 5.592 7.502 3.24 3.266 6.018 6.01 6.174 6.096s.498.156.76.154 2.91-.662 5.884-1.467 5.505-1.464 5.625-1.464 1.141.946 2.269 2.102l3.915 4.018 1.864 1.916-4.192 4.045c-3.61 3.485-4.27 4.058-4.753 4.131-.308.047-.697.162-.864.257-.168.094-3.082 2.98-6.477 6.411-7.003 7.08-6.981 7.052-7.095 9.281-.05.982.003 1.439.258 2.197l.322.957-3.067 4.01a982 982 0 0 1-3.815 4.967c-.412.525-.722.955-.689.955s2.27-1.71 4.97-3.8l4.912-3.8.704.27c1.064.406 1.98.496 3.057.3 1.866-.34 2.062-.501 8.565-7.011 3.33-3.333 6.189-6.248 6.354-6.478s.317-.658.335-.951c.03-.473.483-1.005 3.974-4.665 2.166-2.272 3.98-4.131 4.031-4.131.24 0 7.977 8.308 7.948 8.535-.094.748.45 1.37 6.531 7.466 6.736 6.752 6.907 6.893 8.78 7.234 1.074.196 1.994.107 3.047-.296l.694-.265 4.826 3.735c2.655 2.054 4.847 3.71 4.872 3.681.024-.03-1.145-1.6-2.6-3.492a3088 3088 0 0 1-3.71-4.837l-1.067-1.397.312-.929c.535-1.598.351-3.507-.471-4.891-.352-.592-12.306-12.765-12.822-13.056-.167-.095-.557-.21-.867-.257-.485-.073-1.137-.638-4.753-4.125l-4.19-4.04 1.79-1.845c.985-1.015 2.759-2.85 3.943-4.08l2.153-2.234 5.522 1.493c3.037.82 5.659 1.507 5.826 1.526.945.103.982.071 7.025-6 3.284-3.298 5.97-6.084 5.97-6.19s.07-.194.153-.194c.084 0 .152-.245.152-.544s-.064-.505-.141-.457c-.078.049-.181-.033-.23-.182-.05-.148-1.622-2.608-3.494-5.467l-3.404-5.197.877-.917c1.16-1.215 1.376-1.565 1.376-2.239 0-1.054-1.138-1.899-2.13-1.582-.183.058-.839.59-1.456 1.18-1.074 1.025-1.14 1.062-1.467.846C59.932 2.32 58 1.074 57.662.977c-.946-.273-1.081-.162-6.815 5.563-3.04 3.036-5.725 5.789-5.966 6.117-.24.328-.438.77-.438.985 0 .213.684 2.951 1.52 6.084s1.52 5.726 1.52 5.761-1.85 1.873-4.11 4.082l-4.11 4.018-2.008-1.97-4.107-4.035-2.1-2.064 1.53-5.746c.841-3.161 1.53-5.946 1.53-6.19 0-.379-.87-1.318-6.026-6.51-3.315-3.336-6.17-6.094-6.346-6.126s-.526-.017-.776.037M16.655 7.66l-4.305 2.85 7.529 7.571c4.14 4.164 7.562 7.537 7.604 7.495.102-.103 2.976-10.88 2.976-11.159 0-.197-9.245-9.625-9.424-9.612-.042.004-2.013 1.288-4.38 2.856m36.11 1.84c-2.57 2.586-4.674 4.799-4.674 4.918 0 .278 2.875 11.055 2.976 11.157.042.042 3.465-3.331 7.606-7.496l7.53-7.572-4.319-2.854C59.51 6.084 57.537 4.8 57.502 4.8c-.036 0-2.168 2.115-4.738 4.701m-45.74 7.871-2.827 4.319 4.741 4.785 4.741 4.785 5.464-1.467c3.005-.806 5.563-1.5 5.684-1.543.145-.05-2.348-2.661-7.295-7.637-4.134-4.158-7.553-7.56-7.6-7.56-.045 0-1.354 1.944-2.909 4.318m53.998 3.237-7.511 7.555.824.237c.453.13 3.01.826 5.681 1.546l4.858 1.309 4.74-4.783 4.74-4.782-2.8-4.28c-1.539-2.354-2.849-4.298-2.91-4.319s-3.49 3.362-7.622 7.517M.403 21.997c0 .336.032.456.068.265.037-.19.035-.465-.003-.611s-.067.01-.066.346m28.104 7.313-.65.666 10.748 11.22c5.911 6.171 10.79 11.238 10.842 11.26.052.02.581-.46 1.177-1.07l1.083-1.11L40.59 39.511c-6.114-5.921-11.188-10.789-11.274-10.817-.087-.028-.45.249-.808.616m16.923 2.956-3.735 3.619.8.814c.439.447.841.813.894.813.052 0 1.716-1.698 3.696-3.772l3.6-3.773-.645-.66c-.354-.364-.696-.66-.76-.66-.063 0-1.795 1.628-3.85 3.619m-14.538 14.08-4.052 3.93 1.085 1.11c.597.61 1.123 1.09 1.17 1.07.161-.076 7.673-7.943 7.728-8.095.053-.145-1.625-1.965-1.799-1.95-.044.003-1.904 1.774-4.132 3.935m-7.849 6.496c-.351.36-.64.723-.64.806 0 .082.752.903 1.671 1.824l1.67 1.675.764-.757.763-.756-1.71-1.723c-.94-.948-1.747-1.724-1.793-1.724-.047 0-.373.295-.725.655m29.946 1.069-1.71 1.723.764.756.763.757 1.67-1.675c.92-.921 1.671-1.742 1.671-1.825 0-.157-1.217-1.46-1.364-1.46-.047 0-.854.776-1.794 1.724m-33.624 2.631-.523.542 1.665 1.679c.915.923 1.737 1.678 1.828 1.678s.362-.208.605-.463l.441-.463-1.747-1.757-1.747-1.757zm37.546 1.22-1.74 1.755.44.462c.243.254.515.462.605.462s.914-.756 1.831-1.681l1.667-1.681-.532-.536-.532-.535zm-41.046 2.3-.518.538 1.737 1.753 1.738 1.752.499-.486c.274-.267.499-.56.499-.65 0-.162-3.197-3.445-3.355-3.445-.045 0-.315.242-.6.538m44.42 1.187-1.71 1.724.576.567.577.566 1.738-1.753 1.738-1.753-.518-.538c-.285-.296-.558-.538-.605-.538-.048 0-.856.776-1.797 1.725m-47.43 2.173c-.58 1.28.206 2.889 1.6 3.276.546.151 1.869-.045 1.869-.277 0-.055-.74-.841-1.645-1.748l-1.643-1.648zm51.002 1.266c-.896.904-1.63 1.686-1.63 1.738 0 .051.296.168.657.26 1.146.29 2.253-.217 2.744-1.257.291-.618.313-1.562.047-2.043-.183-.331-.24-.29-1.818 1.302" clip-rule="evenodd"/></svg>
